X:1
T:Title
%%score [ 1 2 3 4 ]
L:1/8
Q:1/4=100
M:4/4
K:D
V:1 treble nm="Soprano" snm="S"
V:2 treble nm="Alto" snm="A"
V:3 treble-8 nm="Tenor" snm="T"
V:4 bass nm="Bass" snm="B"
V:1
"^Allegro""^Giuseppe Antonio Bernabei\n(1649-1732)" z8"^Alleluia" | z8 | z2 d2 e2 c2 | %3
w: ||Al- le- lu-|
 f2 f2 B2 e2 | c2 d2 d2 c2 | d2 d2 d2 B2 | c2 A2 A2 ^G2 |[M:4/4] A2 A2 B2 ^G2 | F2 A2 B2 ^G2 | %9
w: ia, al- le- lu-|ia, al- le- lu-|ia, al- le- lu-|ia, al- le- lu-|ia, al- le- lu-|ia, al- le- lu-|
 c2 B2 e2 e2 | d2 d2 c2 c2 | B8 | B2 d4 c2 | d2 B2 c2 ^A2 | B2 d2 c2 B2 | f2 F2 ^A2 B2 | %16
w: ia, al- le- lu-|ia, al- le- lu-|ia,|al- le- lu-|ia, al- le- lu-|ia, al- le- lu-|ia, al- le- lu-|
 c2 d4 (c2- | c2 B4) ^A2 | B2"^rit."[Q:1/4=98] B2[Q:1/4=96] B2[Q:1/4=93] A2 | %19
w: ia, al- le\-|* * lu-|ia, al- le- lu-|
[Q:1/4=91] A2[Q:1/4=89] B2[Q:1/4=87] B2[Q:1/4=85] ^A2 |[Q:1/4=84] !fermata!B8 |] %21
w: ia, al- le- lu-|ia.|
V:2
 z2 F2 G2 E2 | F2 D2 E2 C2 | B,2 B2 E2 A2 | F2 F2 ^G2 c2 | A2 A2 B2 A2 | F2 A2 A2 ^G2 | A4 z2 E2- | %7
w: Al- le- lu-|ia, al- le- lu-|ia, al- le- lu-|ia, al- le- lu-|ia, al- le- lu-|ia, al- le- lu-|ia, al\-|
[M:4/4] E2 D4 C2 | C4 z4 | z2 F2 G2 E2 | F2 B2 E2 A2 | F2 G2 F2 F2 | E2 F2 G2 E2 | F2 D2 G2 F2 | %14
w: * le- lu-|ia,|al- le- lu-|ia, al- le- lu-|ia, al- le- lu-|ia, al- le- lu-|ia, al- le- lu-|
 F6 D2 | C2 B,2 F4- | F2 F2 G2 E2 | F2 G2 G2 F2 | F2"^rit." F2 G2 E2 | F2 D2 G2 F2 | !fermata!F8 |] %21
w: ia, al-|le- lu- ia,|* al- le- lu-|ia, al- le- lu-|ia, al- le- lu-|ia, al- le- lu-|ia.|
V:3
 B2 d4 c2 | d2 B2 c2 ^A2 | B2 B2 c2 A2 | d2 A2 e2 e2 | f2 f2 e2 e2 | d2 f2 B2 e2 | c2 c2 d2 B2 | %7
w: Al- le- lu-|ia, al- le- lu-|ia, al- le- lu-|ia, al- le- lu-|ia, al- le- lu-|ia, al- le- lu-|ia, al- le- lu-|
[M:4/4][K:treble-8] c2 f2 f2 ^e2 | f2 f2 B2 e2 | c2 d2 d2 c2 | d2 B2 c2 f2 | ^d2 e2 e2 d2 | %12
w: ia, al- le- lu-|ia, al- le- lu-|ia, al- le- lu-|ia, al- le- lu-|ia, al- le- lu-|
 e2 d2 e2 e2 | A2 B2 e2 c2 | B4 z2 B2 | ^A2 B2 F2 d2 | c2 B2 e2 e2 | d2 d2 c4 | B2"^rit." d4 c2 | %19
w: ia, al- le- lu-|ia, al- le- lu-|ia, al-|le- lu- ia, al-|le- lu- ia, al-|le- lu- ia,|al- le- lu-|
 d2 B2 e2 c2 | !fermata!^d8 |] %21
w: ia, al- le- lu-|ia.|
V:4
 z2 B,2 E,2 A,2 | F,2 G,2 E,2 F,2 | B,,2 z2 z4 | z2 D,2 E,2 C,2 | F,2 D,2 G,2 A,2 | D,4 z4 | %6
w: Al- le- lu-|ia, al- le- lu-|ia,|al- le- lu-|ia, al- le- lu-|ia,|
 z2 F,2 B,,2 E,2 |[M:4/4] C,2 D,2 B,,2 C,2 | F,,2 F,2 ^G,2 E,2 | A,2 B,2 G,2 A,2 | %10
w: al- le- lu-|ia, al- le- lu-|ia, al- le- lu-|ia, al- le- lu-|
 D,2 G,2 A,2 F,2 | B,2 E,2 B,2 B,,2 | E,2 B,2 E,2 A,2 | F,2 G,2 E,2 F,2 | B,,2 B,2 ^A,2 B,2 | %15
w: ia, al- le- lu-|ia, al- le- lu-|ia, al- le- lu-|ia, al- le- lu-|ia, al- le- lu-|
 F,2 D2 C2 B,2 | ^A,2 B,2 E,2 =A,2 | D,2 G,2 E,2 F,2 | B,,2"^rit." B,2 E,2 A,2 | F,2 G,2 E,2 F,2 | %20
w: ia, al- le- lú-|ia, al- le- lu-|ia, al- le- lu-|ia, al- le- lu-|ia, al- le- lu-|
 !fermata!B,,8 |] %21
w: ia.|

